X: 3
T: Missa Cela sans plus / Credo
N: Derived from Mar1001c-Missa_Cela_sans_plus-Credo.krn
C: Johannes Martini
%%abc-version 2.0
%%abcx-abcm2ps-target-version 5.9.1 (29 Sep 2008)
%%abc-creator hum2abc beta
%%abcx-conversion-date 2019/02/17 07:19:40
%%abc-edited-by Jesse Rodin
%%abc-edited-by Chris Gage 10-23-2013
%%abcx-initial-encoding-date 2013/10/25/
%%humdrum-veritas 116543697
%%humdrum-veritas-data 3786107324
%%linebreak <none>
%%barnumbers 0
L: 1/4
M: 3/1
Q: 1/2=120
%%staves [1 2 3 4]
V: 1 clef=treble
V: 2 clef=treble-8
V: 3 clef=treble-8
V: 4 clef=bass
K: C
[V:1] z12 | 
[V:2] d6c2B4 | 
[V:3] z12 | 
[V:4] D,4F,4G,4 | 
[V:1] A6G2F4 | 
[V:2] A4c4d4 | 
[V:3] z12 | 
[V:4] A,2F,4E,2D,3C, | 
[V:1] E4G4A4 | 
[V:2] c3de2d2f4 | 
[V:3] z12 | 
[V:4] A,,2C,3B,,G,,2D,2F,2 | 
[V:1] G3AB2A2c4 | 
[V:2] e4d2c3BA2- | 
[V:3] z12 | 
[V:4] C,4G,,2A,,3B,,C,D, | 
[V:1] B4A2G3FE2- | 
[V:2] A2G2A2E2G2A2 | 
[V:3] z12 | 
[V:4] E,4A,,2C,4C,2 | 
[V:1] E2D2E2B,2D2E2 | 
[V:2] F4E4F2G2 | 
[V:3] z12 | 
[V:4] D,4G,2F,E,D,2C,2- | 
[V:1] C4B,4C2D2 | 
[V:2] E2A4G2A2B2 | 
[V:3] z12 | 
[V:4] C,2A,,2E,4z2D,2 | 
[V:1] B,2E4D2E2F2 | 
[V:2] G2c4B2c2d2- | 
[V:3] z12 | 
[V:4] E,2C,2G,3F,E,2D,2- | 
[V:1] D2G4F2G2A2- | 
[V:2] dcB2A2A2G2FE | 
[V:3] z12 | 
[V:4] D,2G,,2D,4E,2D,2 | 
[V:1] AGF2E4D4 | 
[V:2] D2d4c2d2B2 | 
[V:3] z12 | 
[V:4] F,3G,A,4D,2G,2 | 
[V:1] z12 | 
[V:2] A2d3cBAG2A2 | 
[V:3] z12 | 
[V:4] F,2D,2G,3F,E,D,F,2 | 
[V:1] z12 | 
[V:2] c2AB2AA4^G2 | 
[V:3] z12 | 
[V:4] E,2D,3C,B,,A,,B,,4 | 
[V:1] E4C2D2E2F2- | 
[V:2] A2GFE4A4 | 
[V:3] A12- | 
[V:4] A,,12 | 
[V:1] FEDCB,4A,4 | 
[V:2] c4z2d6 | 
[V:3] A4G4F4 | 
[V:4] z4z4D,4 | 
[V:1] B,8C4 | 
[V:2] e2g3fe3dcB | 
[V:3] E8z4 | 
[V:4] G,8A,4 | 
[V:1] D4E8 | 
[V:2] A2d4^c2^c3B | 
[V:3] D4G8 | 
[V:4] F,4E,8 | 
[V:1] F4F2E3DCB, | 
[V:2] d4c3de2e2- | 
[V:3] A8G4 | 
[V:4] D,4A,,4C,4 | 
[V:1] A,2D4^C2C3B, | 
[V:2] e2d2e4A4 | 
[V:3] F4E8 | 
[V:4] D,4A,,8 | 
[V:1] D12 | 
[V:2] F6A4d2 | 
[V:3] D8z4 | 
[V:4] z2A,4F,4D,2 | 
[V:1] z4z4G4 | 
[V:2] B4c4z2d2 | 
[V:3] G4A4B4 | 
[V:4] E,2G,4F,2G,4 | 
[V:1] A4B4c2d2- | 
[V:2] f4d2e4d2- | 
[V:3] c2d4G2A2B2 | 
[V:4] F,2D,2G,4z2G,,2- | 
[V:1] d2G2A2B2G4 | 
[V:2] d2B2c2d2e4 | 
[V:3] G4F2G2c3B | 
[V:4] G,,A,,B,,C,A,,2G,,2z2C,2 | 
[V:1] F2G2B2A3GG2- | 
[V:2] d2c2d2f4e2 | 
[V:3] A2G2d4c2B2 | 
[V:4] D,2E,2D,4F,2G,2 | 
[V:1] G2^F2G4z4 | 
[V:2] d4B2G2d2d2- | 
[V:3] A4G8 | 
[V:4] D,4G,,8 | 
[V:1] z12 | 
[V:2] dcBAB2A4G2 | 
[V:3] z12 | 
[V:4] G,,2D,2D,3C,B,,A,,B,,2 | 
[V:1] z12 | 
[V:2] A2GFE4D2F2 | 
[V:3] z12 | 
[V:4] A,,2D,4^C,2D,4 | 
[V:1] z12 | 
[V:2] G2A4d4B2 | 
[V:3] z12 | 
[V:4] E,2D,2F,4D,2E,2- | 
[V:1] z12 | 
[V:2] c2A3GG4^F2 | 
[V:3] z12 | 
[V:4] E,2C,2D,2B,,2A,,4 | 
[V:1] G4F4F2G2 | 
[V:2] G4A4B4 | 
[V:3] d12 | 
[V:4] G,,4D,6E,2 | 
[V:1] A4D2G2A2F2- | 
[V:2] A4z2d4A2 | 
[V:3] c4B4A4- | 
[V:4] F,4G,4D,4 | 
[V:1] FEF2G4z2d2- | 
[V:2] d3cB4c2d2 | 
[V:3] A4G8 | 
[V:4] D,4E,4C,2B,,2 | 
[V:1] d2c2d2A2B2A2- | 
[V:2] e4d8 | 
[V:3] A4F4D4 | 
[V:4] A,,4D,6F,2- | 
[V:1] AGF2E4D2F2 | 
[V:2] A4z2A2B2A2 | 
[V:3] z2d4c2d2A2 | 
[V:4] F,2D,2A,4D,4 | 
[V:1] G2F3ED4^C2 | 
[V:2] d2c2A8 | 
[V:3] B2A3GF2E4 | 
[V:4] G,,2A,,2D,4A,,4 | 
[V:1] D4z4z4 | 
[V:2] F4z4z4 | 
[V:3] D2F2G2F3ED2- | 
[V:4] A,4B,2A,3G,F,2 | 
[V:1] z12 | 
[V:2] z12 | 
[V:3] D2^C2D2A3GG2- | 
[V:4] E,4D,4C,2B,,2 | 
[V:1] z4z4G4 | 
[V:2] z4d4e4 | 
[V:3] G2^F2G4z4 | 
[V:4] A,,4G,,4C,4 | 
[V:1] A8G4 | 
[V:2] e4d4B4 | 
[V:3] z4z4G4 | 
[V:4] A,,4D,4E,4 | 
[V:1] E8D4 | 
[V:2] c6A4F2 | 
[V:3] A8F4 | 
[V:4] A,,8D,4 | 
[V:1] G8F4 | 
[V:2] G2c3de2A3B | 
[V:3] E8D4 | 
[V:4] C,8F,4 | 
[V:1] E2DCB,2E4D2 | 
[V:2] c2BAG2c2A3G | 
[V:3] G8F4 | 
[V:4] C,3D,E,2C,2D,4 | 
[V:1] E2G4E2F2A2- | 
[V:2] (3B2c2d2(3e2B2c2d2f2- | 
[V:3] E8D4 | 
[V:4] G,4E,2G,2F,3E, | 
[V:1] A2GFE2A3GFE | 
[V:2] fed4^c2d4 | 
[V:3] A8D4 | 
[V:4] D,2C,B,,A,,4A,4 | 
[V:1] D2E2A,2D4^C2 | 
[V:2] z12 | 
[V:3] z12 | 
[V:4] F,2G,2A,2D,2E,4 | 
[V:1] D2z2A3GE2F2 | 
[V:2] d4c3de2d2 | 
[V:3] A6c4A2 | 
[V:4] D,4F,3E,C,2D,2 | 
[V:1] G2EF2EE4D2 | 
[V:2] B2c6A2B2 | 
[V:3] G2A4G2F4 | 
[V:4] E,2A,,2C,4D,4 | 
[V:1] E2A4G2F4 | 
[V:2] ABcde4A2d2 | 
[V:3] E4z4z2A2- | 
[V:4] A,,4C,4D,2D,2 | 
[V:1] E4z2D2E2G2- | 
[V:2] e2c2A3Bc2BA | 
[V:3] A2G2F4E4 | 
[V:4] C,4D,4C,2E,2- | 
[V:1] G2F2E4D4 | 
[V:2] G2A2B2c2B2d2- | 
[V:3] z2D2E2G4F2 | 
[V:4] E,2F,2G,2C,2z2D,2 | 
[V:1] z2G2F2A4B2 | 
[V:2] d2^c2d2f4e2 | 
[V:3] E4D4z2G2 | 
[V:4] E,2G,2A,2F,4G,2 | 
[V:1] A2c4d2c2A2- | 
[V:2] c4z4A4 | 
[V:3] F2A4B2A2c2- | 
[V:4] A,4A,,2G,,2A,,4 | 
[V:1] A2F2G2A2D4 | 
[V:2] F2A2G2c2A2B2- | 
[V:3] c2d2c2A4F2 | 
[V:4] A,2D,2E,2F,4D,2 | 
[V:1] E2F3ED4^C2 | 
[V:2] BAA4G2A4 | 
[V:3] G2A2D4E4 | 
[V:4] C,2A,,2_B,,4A,,4 | 
[V:1] D12 ||  
[V:2] A12 ||  
[V:3] D12 ||  
[V:4] A,12 ||  
[V:1]  [K:C] [K:clef=treble][M:2/1]z8 | 
[V:2]  [K:C] [K:clef=treble-8][M:2/1]z8 | 
[V:3]  [K:C] [K:clef=treble-8][M:2/1]z8 | 
[V:4]  [K:C] [K:clef=bass][M:2/1]D,4D,4 | 
[V:1] z8 | 
[V:2] z8 | 
[V:3] z8 | 
[V:4] E,2F,2E,2D,2- | 
[V:1] z8 | 
[V:2] d4d4 | 
[V:3] z8 | 
[V:4] D,C,B,,A,,B,,4 | 
[V:1] z8 | 
[V:2] e2f2e2d2- | 
[V:3] z8 | 
[V:4] A,,2D,2E,2F,2- | 
[V:1] z8 | 
[V:2] dcBAB4 | 
[V:3] z8 | 
[V:4] F,E,A,4^G,2 | 
[V:1] A4A4 | 
[V:2] z2A3Bc2 | 
[V:3] z8 | 
[V:4] A,4F,4 | 
[V:1] B2c2B2A2- | 
[V:2] d2e2d2f2- | 
[V:3] z8 | 
[V:4] D,2C,2D,4- | 
[V:1] AGFEF4 | 
[V:2] fee4d2 | 
[V:3] z8 | 
[V:4] D,2C,2D,4 | 
[V:1] E2A,3B,C2- | 
[V:2] e4c4 | 
[V:3] z8 | 
[V:4] A,,8 | 
[V:1] CDE2D2F2- | 
[V:2] A2G2B2A2- | 
[V:3] z8 | 
[V:4] z8 | 
[V:1] FEE4D2 | 
[V:2] A2G2F4 | 
[V:3] z8 | 
[V:4] z8 | 
[V:1] E8 | 
[V:2] E4z4 | 
[V:3] z8 | 
[V:4] G,4A,4- | 
[V:1] C4A,4 | 
[V:2] z8 | 
[V:3] z8 | 
[V:4] A,2F,4E,D, | 
[V:1] z8 | 
[V:2] G4A4- | 
[V:3] z8 | 
[V:4] E,4D,2F,2- | 
[V:1] z8 | 
[V:2] A2F4ED | 
[V:3] z8 | 
[V:4] F,E,D,4C,B,, | 
[V:1] G4A4- | 
[V:2] E4D4 | 
[V:3] z8 | 
[V:4] C,4z2F,2- | 
[V:1] A2F4ED | 
[V:2] d8 | 
[V:3] z8 | 
[V:4] F,2D,2F,2G,2 | 
[V:1] E4D4 | 
[V:2] c4d4 | 
[V:3] z8 | 
[V:4] E,2A,2D,4 | 
[V:1] E4F2G2- | 
[V:2] A4D2E2- | 
[V:3] z8 | 
[V:4] z2A,4G,2 | 
[V:1] G2E2F2A2- | 
[V:2] E2C2D2d2- | 
[V:3] z8 | 
[V:4] B,2A,3G,F,2 | 
[V:1] A2G2B2A2- | 
[V:2] d2^c2d4 | 
[V:3] z8 | 
[V:4] E,4D,2F,2- | 
[V:1] AGF2E4 | 
[V:2] z2A4G2 | 
[V:3] z8 | 
[V:4] F,2E,D,C,4 | 
[V:1] D2F4ED | 
[V:2] B2A3GF2 | 
[V:3] z8 | 
[V:4] D,4A,,4- | 
[V:1] ^C4D4 | 
[V:2] E4D4 | 
[V:3] z8 | 
[V:4] A,,4D,4 | 
[V:1] z8 | 
[V:2] G4G4 | 
[V:3] z8 | 
[V:4] E,6G,2- | 
[V:1] z8 | 
[V:2] A4B3A | 
[V:3] z8 | 
[V:4] G,2F,2G,2E,2- | 
[V:1] G4G4 | 
[V:2] B2c3BAG | 
[V:3] z8 | 
[V:4] E,D,C,4B,,2 | 
[V:1] A4B3A | 
[V:2] ^F3EG4 | 
[V:3] z8 | 
[V:4] A,,4G,,2G,2- | 
[V:1] B2c3BAG | 
[V:2] z4A4- | 
[V:3] z8 | 
[V:4] G,2A,2F,3E, | 
[V:1] ^F3EG4 | 
[V:2] A4G4 | 
[V:3] z8 | 
[V:4] D,4E,4 | 
[V:1] A8 | 
[V:2] d4d4- | 
[V:3] z8 | 
[V:4] D,4F,4 | 
[V:1] G4z4 | 
[V:2] d2c2B4- | 
[V:3] z8 | 
[V:4] G,4D,4- | 
[V:1] d4d4- | 
[V:2] B2A4G2- | 
[V:3] z8 | 
[V:4] D,2C,2B,,4 | 
[V:1] d2c2B4 | 
[V:2] G2^F2G2d2- | 
[V:3] z8 | 
[V:4] A,,4G,,4 | 
[V:1] B2A4G2- | 
[V:2] d2c2d2B2 | 
[V:3] z8 | 
[V:4] G,2A,2D,2G,2 | 
[V:1] G2^F2G2A2- | 
[V:2] A4G2c2 | 
[V:3] z8 | 
[V:4] D,4E,2F,2- | 
[V:1] A2G2A2F2 | 
[V:2] d2e3dd2- | 
[V:3] z8 | 
[V:4] F,E,C,4D,2 | 
[V:1] E4D2G2 | 
[V:2] d2^c2d2e2 | 
[V:3] z8 | 
[V:4] A,,4z4 | 
[V:1] A2B3AA2- | 
[V:2] f2d4c2 | 
[V:3] z8 | 
[V:4] z8 | 
[V:1] A2G2A2B2 | 
[V:2] _B2AGF2G2 | 
[V:3] z8 | 
[V:4] z8 | 
[V:1] c2A4G2 | 
[V:2] A2c3de2- | 
[V:3] z8 | 
[V:4] z8 | 
[V:1] F2EDC2D2 | 
[V:2] e2d2e2f2 | 
[V:3] z8 | 
[V:4] z8 | 
[V:1] E2G3FA2- | 
[V:2] g2e3dc2 | 
[V:3] z8 | 
[V:4] z8 | 
[V:1] AGG4^F2 | 
[V:2] cBAGA4 | 
[V:3] z8 | 
[V:4] z8 | 
[V:1] G8 | 
[V:2] G8 | 
[V:3] z8 | 
[V:4] z8 | 
[V:1] [M:3/1]z12 | 
[V:2] [M:3/1]z12 | 
[V:3] [M:3/1]z12 | 
[V:4] [M:3/1]G,8A,4 | 
[V:1] z12 | 
[V:2] G8A4 | 
[V:3] z12 | 
[V:4] G,4E,4F,4 | 
[V:1] G8A4 | 
[V:2] G4E4F4 | 
[V:3] z12 | 
[V:4] E,8D,4 | 
[V:1] G4E4F4 | 
[V:2] E8z4 | 
[V:3] z12 | 
[V:4] E,4C,4D,4 | 
[V:1] E8z4 | 
[V:2] G8F4 | 
[V:3] z12 | 
[V:4] C,8D,4 | 
[V:1] G8F4 | 
[V:2] E8D4 | 
[V:3] z12 | 
[V:4] C,8D,4 | 
[V:1] E8D4 | 
[V:2] A8B4 | 
[V:3] z12 | 
[V:4] A,,4C,4D,4 | 
[V:1] A8B4 | 
[V:2] A4c4d4 | 
[V:3] z12 | 
[V:4] F,6A,2G,4 | 
[V:1] A4c4d4 | 
[V:2] c4A4B4 | 
[V:3] z12 | 
[V:4] A,4F,4D,4 | 
[V:1] c4A4B4 | 
[V:2] A8G4 | 
[V:3] z12 | 
[V:4] F,8z4 | 
[V:1] A8G4 | 
[V:2] F4E8 | 
[V:3] z12 | 
[V:4] D,6B,,2C,4 | 
[V:1] F4E6D2 | 
[V:2] D4C4D4 | 
[V:3] z12 | 
[V:4] D,4E,4F,4 | 
[V:1] D8^C4 | 
[V:2] F4E8 | 
[V:3] z12 | 
[V:4] D,4A,,8 | 
[V:1] D12 ||  
[V:2] D12 ||  
[V:3] z12 ||  
[V:4] A,12 ||  
[V:1]  [K:C] [K:clef=treble][M:2/1]z8 | 
[V:2]  [K:C] [K:clef=treble-8][M:2/1]d8 | 
[V:3]  [K:C] [K:clef=treble-8][M:2/1]z8 | 
[V:4]  [K:C] [K:clef=bass][M:2/1]z8 | 
[V:1] z8 | 
[V:2] c4d4 | 
[V:3] z8 | 
[V:4] z4D,4- | 
[V:1] z4A4 | 
[V:2] B4A4 | 
[V:3] z8 | 
[V:4] D,4C,4 | 
[V:1] A4G4 | 
[V:2] z4d4 | 
[V:3] z8 | 
[V:4] D,4B,,4 | 
[V:1] A4F4 | 
[V:2] e4d4 | 
[V:3] A4A4 | 
[V:4] A,,4D,4 | 
[V:1] E2G2F2E2- | 
[V:2] B4c4 | 
[V:3] G4A4 | 
[V:4] E,4A,,4 | 
[V:1] E2D2E4 | 
[V:2] A4c4 | 
[V:3] F4E4 | 
[V:4] D,4C,4 | 
[V:1] D6CB, | 
[V:2] B4d4- | 
[V:3] z8 | 
[V:4] G,8 | 
[V:1] A,4A4 | 
[V:2] d2cBA4 | 
[V:3] z8 | 
[V:4] F,8 | 
[V:1] G4E4 | 
[V:2] z2B4c2 | 
[V:3] G8 | 
[V:4] E,8 | 
[V:1] F4A4- | 
[V:2] d2f3ed2- | 
[V:3] F8 | 
[V:4] D,8 | 
[V:1] A4G4 | 
[V:2] d2^cB^c4 | 
[V:3] E8 | 
[V:4] z4G,4 | 
[V:1] F4D2F2- | 
[V:2] d4A4 | 
[V:3] D8 | 
[V:4] A,4F,4 | 
[V:1] F2E4D2- | 
[V:2] F2G2A2F2 | 
[V:3] z8 | 
[V:4] D,2C,4D,2 | 
[V:1] D2^C2D4 | 
[V:2] E4D4 | 
[V:3] z8 | 
[V:4] A,,4B,,4 | 
[V:1] z8 | 
[V:2] z8 | 
[V:3] G4G4 | 
[V:4] G,,6G,2- | 
[V:1] z8 | 
[V:2] z8 | 
[V:3] A4B4- | 
[V:4] G,2F,2D,2G,2- | 
[V:1] z8 | 
[V:2] z8 | 
[V:3] B4c4 | 
[V:4] G,F,E,D,E,4 | 
[V:1] z8 | 
[V:2] z8 | 
[V:3] d4G4 | 
[V:4] D,2G,4C,2- | 
[V:1] z8 | 
[V:2] z8 | 
[V:3] A2B4c2 | 
[V:4] C,2D,2E,4 | 
[V:1] z8 | 
[V:2] z8 | 
[V:3] B2A4G2 | 
[V:4] D,4C,2E,2 | 
[V:1] z8 | 
[V:2] z8 | 
[V:3] F2D4E2 | 
[V:4] D,4G,,3A,, | 
[V:1] z8 | 
[V:2] z8 | 
[V:3] D2G4^F2 | 
[V:4] B,,2C,2A,,4 | 
[V:1] G4G4 | 
[V:2] d4e4 | 
[V:3] G8 | 
[V:4] G,,4C,4 | 
[V:1] F4A4 | 
[V:2] d4A2c2- | 
[V:3] z8 | 
[V:4] D,4F,3E, | 
[V:1] G8 | 
[V:2] cBG3ABc | 
[V:3] z8 | 
[V:4] C,3B,,G,,3A,, | 
[V:1] G4F4 | 
[V:2] d2e2d2cB | 
[V:3] z8 | 
[V:4] B,,2C,2D,3E, | 
[V:1] F4E4 | 
[V:2] A2d4^c2 | 
[V:3] z8 | 
[V:4] F,2G,2A,4 | 
[V:1] D4G4 | 
[V:2] d2B3AG2- | 
[V:3] d8- | 
[V:4] D,4G,4 | 
[V:1] A4B4 | 
[V:2] G2^F2G4 | 
[V:3] d8 | 
[V:4] D,4G,,4 | 
[V:1] c4d4- | 
[V:2] E2F2G2A2 | 
[V:3] c4B4 | 
[V:4] A,,4G,,4 | 
[V:1] d2B3AG2- | 
[V:2] B2d3Bc2 | 
[V:3] G8 | 
[V:4] G,4E,4 | 
[V:1] G2^FEF4 | 
[V:2] d8 | 
[V:3] A8 | 
[V:4] D,8 | 
[V:1] G8 | 
[V:2] z2d2e2e2 | 
[V:3] G8 | 
[V:4] G,,4C,4 | 
[V:1] z2D2E2E2 | 
[V:2] d4g4- | 
[V:3] G8- | 
[V:4] B,,4C,4 | 
[V:1] D4G4- | 
[V:2] g2f2e2dc | 
[V:3] G8- | 
[V:4] G,,4z4 | 
[V:1] G2F2E2DC | 
[V:2] B2d4c2 | 
[V:3] G8- | 
[V:4] G,,4C,4 | 
[V:1] B,2D4^C2 | 
[V:2] d4e4 | 
[V:3] G8 | 
[V:4] G,4E,4 | 
[V:1] D4E4 | 
[V:2] f3ec4 | 
[V:3] A8 | 
[V:4] D,4A,,4 | 
[V:1] F4D4 | 
[V:2] d4B4 | 
[V:3] A4G4 | 
[V:4] D,4G,,4 | 
[V:1] F4A4- | 
[V:2] A4d4 | 
[V:3] F4D4 | 
[V:4] z8 | 
[V:1] A2G2F4 | 
[V:2] A6B2 | 
[V:3] F4A4- | 
[V:4] D,8 | 
[V:1] E3DD4- | 
[V:2] c4B4 | 
[V:3] A2G2F4 | 
[V:4] C,4D,4 | 
[V:1] D2^CB,C4 | 
[V:2] A8 | 
[V:3] E8 | 
[V:4] A,,8 | 
[V:1] D4A4 | 
[V:2] F4D4 | 
[V:3] D8- | 
[V:4] A,4F,4 | 
[V:1] B2A4GF | 
[V:2] d4c4 | 
[V:3] D4A4- | 
[V:4] D,2F,4E,D, | 
[V:1] E4F2E2- | 
[V:2] c8 | 
[V:3] A8 | 
[V:4] C,2A,,3B,,C,2- | 
[V:1] E2DCB,2D2- | 
[V:2] c4d4- | 
[V:3] G8- | 
[V:4] C,2B,,A,,G,,2B,,2- | 
[V:1] D2E2D2CB, | 
[V:2] d2c2A4 | 
[V:3] G4F4- | 
[V:4] B,,2C,2D,4- | 
[V:1] A,4A4 | 
[V:2] d4c3B | 
[V:3] F8 | 
[V:4] D,2C,B,,A,,4 | 
[V:1] B4c2B2- | 
[V:2] d4e2d2- | 
[V:3] G8 | 
[V:4] G,,4z2G,2- | 
[V:1] BAG4^F2 | 
[V:2] dBc2A4 | 
[V:3] z8 | 
[V:4] G,2C,2D,4 | 
[V:1] G4E2F2 | 
[V:2] z2e3dd2- | 
[V:3] G8 | 
[V:4] E,4C,2D,2 | 
[V:1] G4F4 | 
[V:2] d2^c2d4 | 
[V:3] G4A4- | 
[V:4] E,4D,4- | 
[V:1] F2E4D2 | 
[V:2] A2c2A3B | 
[V:3] A4F4 | 
[V:4] D,2C,2D,4 | 
[V:1] E2G3FE2- | 
[V:2] c4G4 | 
[V:3] E8 | 
[V:4] A,,4C,4- | 
[V:1] E2DCB,4 | 
[V:2] c4d4- | 
[V:3] G8 | 
[V:4] C,4G,,4 | 
[V:1] A,4D4- | 
[V:2] d2A4G2 | 
[V:3] F4D4 | 
[V:4] D,4B,,4 | 
[V:1] D2^C2C3B, | 
[V:2] A8 | 
[V:3] E8 | 
[V:4] A,,8 | 
[V:1] D4z4 | 
[V:2] z4d4- | 
[V:3] D8 | 
[V:4] A,4F,4 | 
[V:1] A8 | 
[V:2] d4c4 | 
[V:3] z8 | 
[V:4] D,4F,4 | 
[V:1] G4F4 | 
[V:2] B4A4 | 
[V:3] z8 | 
[V:4] G,3F,D,3C, | 
[V:1] E8 | 
[V:2] z4c4 | 
[V:3] A8 | 
[V:4] A,,4z2A,,2 | 
[V:1] z4A4 | 
[V:2] d4d4 | 
[V:3] G4F4 | 
[V:4] B,,2C,2D,2F,2 | 
[V:1] G2A4GF | 
[V:2] e4d4 | 
[V:3] E4z4 | 
[V:4] C,4D,4 | 
[V:1] E3FG2F2- | 
[V:2] c6d2- | 
[V:3] A4G2A2- | 
[V:4] A,,B,,C,D,E,2D,2- | 
[V:1] F2ED^C3B, | 
[V:2] d2A4A2 | 
[V:3] A2GFE4 | 
[V:4] D,2D,2A,,4 | 
[V:1] [M:3/1]D12 | 
[V:2] [M:3/1]F8D4 | 
[V:3] [M:3/1]D12 | 
[V:4] [M:3/1]A,6G,2F,4 | 
[V:1] z4z4D4 | 
[V:2] G8A4 | 
[V:3] z12 | 
[V:4] E,8D,4 | 
[V:1] G8A4 | 
[V:2] B8c4 | 
[V:3] z12 | 
[V:4] G,,4B,,4A,,4 | 
[V:1] B6c2d4 | 
[V:2] d6e2f4 | 
[V:3] z4z4D4 | 
[V:4] G,,8z4 | 
[V:1] d6B2c4 | 
[V:2] g4e8 | 
[V:3] G8A4 | 
[V:4] z12 | 
[V:1] d4B4A4- | 
[V:2] d8z4 | 
[V:3] B6c2d4 | 
[V:4] G,8F,4 | 
[V:1] A4G4E4 | 
[V:2] z4G8 | 
[V:3] d6B2c4 | 
[V:4] D,4E,8 | 
[V:1] F4D8 | 
[V:2] A4B4d4 | 
[V:3] d8B4 | 
[V:4] D,8G,4 | 
[V:1] G8^F4 | 
[V:2] e4d8 | 
[V:3] c4A8 | 
[V:4] C,4D,8 | 
[V:1] G8z4 | 
[V:2] B4e6d2 | 
[V:3] G12 | 
[V:4] E,4C,6B,,2 | 
[V:1] d6c2B4 | 
[V:2] B4G4d4- | 
[V:3] z12 | 
[V:4] G,,12 | 
[V:1] A4G6F2 | 
[V:2] d2c2B4A4 | 
[V:3] z12 | 
[V:4] z12 | 
[V:1] G4A6G2 | 
[V:2] G4F4D4 | 
[V:3] z12 | 
[V:4] z4z4D,4- | 
[V:1] F4E8 | 
[V:2] A6B2c4 | 
[V:3] z12 | 
[V:4] D,4A,,8 | 
[V:1] D8z4 | 
[V:2] A4d6e2 | 
[V:3] d6c2B4 | 
[V:4] D,8G,4 | 
[V:1] z12 | 
[V:2] f4e4g4- | 
[V:3] A4G6F2 | 
[V:4] D,4E,6D,2 | 
[V:1] z12 | 
[V:2] g2f2e2d2e4 | 
[V:3] G4A6G2 | 
[V:4] C,6B,,2A,,4 | 
[V:1] z12 | 
[V:2] d8^c4 | 
[V:3] F4E8 | 
[V:4] D,4A,,8 | 
[V:1] z12 | 
[V:2] d4A4B4 | 
[V:3] D4F4G4 | 
[V:4] D,8B,,4 | 
[V:1] z12 | 
[V:2] c4d6c2 | 
[V:3] A4B6A2 | 
[V:4] A,,4G,,4G,4- | 
[V:1] z12 | 
[V:2] B4A8 | 
[V:3] G8^F4 | 
[V:4] G,4D,8 | 
[V:1] G8G4 | 
[V:2] G8z4 | 
[V:3] G12 | 
[V:4] G,,8G,4 | 
[V:1] A8F4 | 
[V:2] d8d4 | 
[V:3] z12 | 
[V:4] D,6E,2F,4 | 
[V:1] E4G4A4 | 
[V:2] e8c4 | 
[V:3] z12 | 
[V:4] C,4E,4F,4 | 
[V:1] D4G8 | 
[V:2] B8c4- | 
[V:3] G8G4 | 
[V:4] G,8C,4- | 
[V:1] E4F4D4 | 
[V:2] c4A4F4 | 
[V:3] A8F4 | 
[V:4] C,4D,8 | 
[V:1] E6D2C4 | 
[V:2] G4E4F4 | 
[V:3] E12 | 
[V:4] C,6B,,2A,,4 | 
[V:1] B,8z4 | 
[V:2] G8d4 | 
[V:3] z4z4G4 | 
[V:4] G,,6A,,2B,,4 | 
[V:1] G6F2E2D2 | 
[V:2] e4B4c4 | 
[V:3] G8G4 | 
[V:4] C,6D,2E,4 | 
[V:1] A2A4G2F2E2 | 
[V:2] d4A4c4 | 
[V:3] F6G2A4 | 
[V:4] D,6C,2A,,4 | 
[V:1] G4F6E2 | 
[V:2] d8z4 | 
[V:3] B4A6G2 | 
[V:4] G,,4D,4C,4 | 
[V:1] D6^C2C2B,2 | 
[V:2] A12 | 
[V:3] F4E8 | 
[V:4] D,4A,,8 | 
[V:1] D12 |]  
[V:2] A12 |]  
[V:3] D12 |]  
[V:4] A,12 |]  



